X: 29423
T: Nigel Richard's
R: jig
M: 6/8
K: Dmajor
[M:none]
|:BBA GGG BG cd dd|BBA GBG fg ga|
BBA GGG BG cd dd|fBB BBA GG GA:|
|:cde gee ed BB|ccc cde A2 AG|
cde gee ed BB|dBB BBA GG Ga:|

